icons/glyphs/glyph-wallet.svg

<?xml version="1.0" encoding="UTF-8" standalone="no"?><svg height="22" viewBox="0 0 5.8208332 5.8208335" width="22" xmlns="http://www.w3.org/2000/svg"><sodipodi:namedview/><metadata><rdf:RDF><cc:Work><dc:format>image/svg+xml</dc:format><dc:type/><dc:title/><cc:license/><dc:creator><cc:Agent><dc:title>PixelPimps &amp; CodePoets</dc:title></cc:Agent></dc:creator></cc:Work><cc:License><cc:permits/><cc:permits/><cc:requires/><cc:requires/><cc:permits/></cc:License></rdf:RDF></metadata><path d="m .9255249.42556591c-.0845545.008308-.15969843.0659465-.18655191.15244547l-.26354982.84852702h3.73207193l-3.1956706-.9921875c-.028833-.008951-.0581149-.0115543-.0862996-.00878499zm-.58601075 1.26193849c-.18800517 0-.33951415.1509922-.33951415.3389974v3.030306c0 .1880052.15150898.3395141.33951415.3395141h5.14180495c.188005 0 .3395142-.1515089.3395142-.3395141v-.7766968h-2.0422526c-.4174927 0-.7539591-.3364664-.7539591-.7539591 0-.4174926.3364664-.7534424.7539591-.7534424h2.0422526v-.7462077c0-.1880052-.1515092-.3389974-.3395142-.3389974zm3.44009995 1.547709c-.1601189-.0000217-.2899264.1297858-.2899047.2899048-.000022.1601189.1297858.2899264.2899047.289905.160119.0000214.2899268-.1297861.2899048-.289905.0000217-.160119-.1297858-.2899265-.2899048-.2899048z" fill="#d0d0d0"/></svg>

<?xml version="1.0" encoding="UTF-8" standalone="no"?>
<!-- Created with Inkscape (http://www.inkscape.org/) -->

<svg
   xmlns:dc="http://purl.org/dc/elements/1.1/"
   xmlns:cc="http://creativecommons.org/ns#"
   xmlns:rdf="http://www.w3.org/1999/02/22-rdf-syntax-ns#"
   xmlns:svg="http://www.w3.org/2000/svg"
   xmlns="http://www.w3.org/2000/svg"
   xmlns:sodipodi="http://sodipodi.sourceforge.net/DTD/sodipodi-0.dtd"
   xmlns:inkscape="http://www.inkscape.org/namespaces/inkscape"
   width="22"
   height="22"
   viewBox="0 0 5.8208332 5.8208335"
   version="1.1"
   id="svg8"
   inkscape:version="0.92+devel 15739 custom"
   sodipodi:docname="glyph-wallet.svg">
  <defs
     id="defs2" />
  <sodipodi:namedview
     id="base"
     pagecolor="#002466"
     bordercolor="#ffffff"
     borderopacity="0.32156863"
     inkscape:pageopacity="1"
     inkscape:pageshadow="2"
     inkscape:zoom="19.090909"
     inkscape:cx="31.229167"
     inkscape:cy="7.4901763"
     inkscape:document-units="px"
     inkscape:current-layer="svg8"
     inkscape:document-rotation="0"
     showgrid="false"
     units="px"
     inkscape:pagecheckerboard="false"
     borderlayer="true"
     inkscape:showpageshadow="false"
     inkscape:window-width="1920"
     inkscape:window-height="1051"
     inkscape:window-x="0"
     inkscape:window-y="0"
     inkscape:window-maximized="1"
     inkscape:snap-page="true"
     inkscape:snap-smooth-nodes="false"
     inkscape:snap-bbox="false" />
  <metadata
     id="metadata5">
    <rdf:RDF>
      <cc:Work
         rdf:about="">
        <dc:format>image/svg+xml</dc:format>
        <dc:type
           rdf:resource="http://purl.org/dc/dcmitype/StillImage" />
        <dc:title></dc:title>
        <cc:license
           rdf:resource="http://creativecommons.org/licenses/by/4.0/" />
        <dc:creator>
          <cc:Agent>
            <dc:title>PixelPimps &amp; CodePoets</dc:title>
          </cc:Agent>
        </dc:creator>
      </cc:Work>
      <cc:License
         rdf:about="http://creativecommons.org/licenses/by/4.0/">
        <cc:permits
           rdf:resource="http://creativecommons.org/ns#Reproduction" />
        <cc:permits
           rdf:resource="http://creativecommons.org/ns#Distribution" />
        <cc:requires
           rdf:resource="http://creativecommons.org/ns#Notice" />
        <cc:requires
           rdf:resource="http://creativecommons.org/ns#Attribution" />
        <cc:permits
           rdf:resource="http://creativecommons.org/ns#DerivativeWorks" />
      </cc:License>
    </rdf:RDF>
  </metadata>
  <path
     style="fill:#d0d0d0;stroke:none;stroke-width:0.50270832;stroke-linecap:round"
     d="M 0.9255249,0.42556591 C 0.8409704,0.43387391 0.76582647,0.49151241 0.73897299,0.57801138 L 0.47542317,1.4265384 H 4.2074951 L 1.0118245,0.4343509 C 0.9829915,0.4253999 0.9537096,0.4227966 0.9255249,0.42556591 Z M 0.33951415,1.6875044 C 0.15150898,1.6875044 0,1.8384966 0,2.0265018 v 3.030306 C 0,5.244813 0.15150898,5.3963219 0.33951415,5.3963219 H 5.4813191 c 0.188005,0 0.3395142,-0.1515089 0.3395142,-0.3395141 V 4.280111 H 3.7785807 c -0.4174927,0 -0.7539591,-0.3364664 -0.7539591,-0.7539591 0,-0.4174926 0.3364664,-0.7534424 0.7539591,-0.7534424 H 5.8208333 V 2.0265018 c 0,-0.1880052 -0.1515092,-0.3389974 -0.3395142,-0.3389974 z m 3.44009995,1.547709 c -0.1601189,-2.17e-5 -0.2899264,0.1297858 -0.2899047,0.2899048 -2.2e-5,0.1601189 0.1297858,0.2899264 0.2899047,0.289905 0.160119,2.14e-5 0.2899268,-0.1297861 0.2899048,-0.289905 2.17e-5,-0.160119 -0.1297858,-0.2899265 -0.2899048,-0.2899048 z"
     id="rect4294"
     inkscape:connector-curvature="0"
     inkscape:label="#" />
</svg>
